assets/logistics-color/LogisticsColor2.svg

<svg xmlns="http://www.w3.org/2000/svg" id="Layer_1" x="0" y="0" version="1.1" viewBox="0 0 256 256" xml:space="preserve"><style>.st0{fill:#fff}.st1{fill:#48386a}.st2{fill:#9feaff}</style><path d="M193.8 197H17v-11h233.9v11h-49.4z" class="st0"/><path d="M250.9 198h-49.4c-.6 0-1-.4-1-1s.4-1 1-1h48.4v-9H18v8.9h175.8c.6 0 1 .4 1 1s-.4 1-1 1H17c-.6 0-1-.4-1-1V186c0-.6.4-1 1-1h233.9c.6 0 1 .4 1 1v11c0 .5-.4 1-1 1z" class="st1"/><path d="M173 225.8H29v-10.9h210v10.9h-59.8z" class="st0"/><path d="M239 226.8h-59.8c-.6 0-1-.4-1-1s.4-1 1-1H238v-8.9H30v8.9h143c.6 0 1 .4 1 1s-.4 1-1 1H29c-.6 0-1-.4-1-1v-10.9c0-.6.4-1 1-1h210c.6 0 1 .4 1 1v10.9c0 .6-.4 1-1 1z" class="st1"/><path d="M177 225.8H33v-10.9h209v10.9h-58.8z" class="st2"/><path d="M38.9 197h9v17.9h-9z" class="st0"/><path d="M47.9 215.9h-9c-.6 0-1-.4-1-1V197c0-.6.4-1 1-1h9c.6 0 1 .4 1 1v17.9c0 .5-.4 1-1 1zm-8-2h7V198h-7v15.9z" class="st1"/><path d="M38.9 117.5V59.2h9V186h-9v-59z" class="st0"/><path d="M47.9 187h-9c-.6 0-1-.4-1-1v-59c0-.6.4-1 1-1s1 .4 1 1v58h7V60.2h-7v57.2c0 .6-.4 1-1 1s-1-.4-1-1V59.2c0-.6.4-1 1-1h9c.6 0 1 .4 1 1V186c0 .6-.4 1-1 1z" class="st1"/><path d="M38.9 124.3c-.6 0-1-.4-1-1v-2.2c0-.6.4-1 1-1s1 .4 1 1v2.2c0 .6-.4 1-1 1z" class="st1"/><path d="M25.5 17.2h56.8v42H4.6v-42h12.2z" class="st0"/><path d="M82.3 60.2H4.6c-.6 0-1-.4-1-1v-42c0-.6.4-1 1-1h12.3c.6 0 1 .4 1 1s-.4 1-1 1H5.6v40h75.7v-40H25.5c-.6 0-1-.4-1-1s.4-1 1-1h56.8c.6 0 1 .4 1 1v42c0 .6-.5 1-1 1z" class="st1"/><path d="M197.3 197H20.5v-11h232.9v11H205zM68.4 20.7h13.9v35H11.1v-35h53z" class="st2"/><path d="M22 18.2h-1.5c-.6 0-1-.4-1-1s.4-1 1-1H22c.6 0 1 .4 1 1s-.4 1-1 1zM78.8 56.2H8.1c-.3 0-.5-.2-.5-.5v-35c0-.3.2-.5.5-.5h52.7c.3 0 .5.2.5.5s-.2.5-.5.5H8.6v34h69.7v-34H65c-.3 0-.5-.2-.5-.5s.2-.5.5-.5h13.8c.3 0 .5.2.5.5v35c0 .3-.2.5-.5.5z" class="st1"/><path d="M38.9 225.8h9v12.9h-9z" class="st0"/><path d="M47.9 239.8h-9c-.6 0-1-.4-1-1v-12.9c0-.6.4-1 1-1h9c.6 0 1 .4 1 1v12.9c0 .5-.4 1-1 1zm-8-2h7v-10.9h-7v10.9z" class="st1"/><path d="M220.1 197h9v17.9h-9z" class="st0"/><path d="M229 215.9h-9c-.6 0-1-.4-1-1V197c0-.6.4-1 1-1h9c.6 0 1 .4 1 1v17.9c0 .5-.4 1-1 1zm-7.9-2h7V198h-7v15.9z" class="st1"/><path d="M220.1 225.8h9v12.9h-9z" class="st0"/><path d="M229 239.8h-9c-.6 0-1-.4-1-1v-12.9c0-.6.4-1 1-1h9c.6 0 1 .4 1 1v12.9c0 .5-.4 1-1 1zm-7.9-2h7v-10.9h-7v10.9zM29.8 50.3c-.1 0-.3 0-.4-.1-.2-.2-.2-.5 0-.7L52.9 26c.2-.2.5-.2.7 0s.2.5 0 .7L30.1 50.1c-.1.1-.2.2-.3.2zM37.7 50.7c-.1 0-.3 0-.4-.1-.2-.2-.2-.5 0-.7l19.3-19.3c.2-.2.5-.2.7 0s.2.5 0 .7L38.1 50.6c-.1.1-.2.1-.4.1zM251.4 192H88.9c-.3 0-.5-.2-.5-.5s.2-.5.5-.5h162.6c.3 0 .5.2.5.5s-.3.5-.6.5zM86.4 192h-2.8c-.3 0-.5-.2-.5-.5s.2-.5.5-.5h2.8c.3 0 .5.2.5.5s-.2.5-.5.5zM80.1 192H17.5c-.3 0-.5-.2-.5-.5s.2-.5.5-.5h62.6c.3 0 .5.2.5.5s-.2.5-.5.5zM238.5 220.9h-209c-.3 0-.5-.2-.5-.5s.2-.5.5-.5h209c.3 0 .5.2.5.5s-.2.5-.5.5z" class="st1"/><path d="M73.3 150.4V98.8h117.4v26.6h-39v60.5H73.3v-30z" class="st0"/><path d="M151.7 186.9H73.3c-.6 0-1-.4-1-1v-30c0-.6.4-1 1-1s1 .4 1 1v29h76.4v-59.6c0-.6.4-1 1-1h38.1V99.8H74.3v50.5c0 .6-.4 1-1 1s-1-.4-1-1V98.8c0-.6.4-1 1-1h117.4c.6 0 1 .4 1 1v26.5c0 .6-.4 1-1 1h-38.1v59.6c.1.6-.4 1-.9 1z" class="st1"/><path d="M234 153.9V186h-82.3v-60.6H234v23.8z" class="st0"/><path d="M234 187h-82.4c-.6 0-1-.4-1-1v-60.7c0-.6.4-1 1-1H234c.6 0 1 .4 1 1v23.8c0 .6-.4 1-1 1s-1-.4-1-1v-22.8h-80.4V185H233v-31.2c0-.6.4-1 1-1s1 .4 1 1V186c0 .6-.4 1-1 1z" class="st1"/><path d="M130.8 74.5V45.7h82.3v79.7h-22.4V98.9h-59.9V79z" class="st0"/><path d="M213.1 126.4h-22.4c-.6 0-1-.4-1-1V99.9h-59c-.6 0-1-.4-1-1V79c0-.6.4-1 1-1s1 .4 1 1v18.9h59c.6 0 1 .4 1 1v25.4h20.4V46.7h-80.4v27.8c0 .6-.4 1-1 1s-1-.4-1-1V45.7c0-.6.4-1 1-1h82.4c.6 0 1 .4 1 1v79.7c0 .5-.4 1-1 1z" class="st1"/><path d="M178.7 171.1h36.1V186h-36.1zM175.9 66.6h-14.3V45.7h28.6v20.9h-8.9z" class="st2"/><path d="M127 91h14.9v31.9H127z" class="st2" transform="rotate(90 134.51 106.893)"/><path d="M189.2 121.9h11.2v18.2h-11.2z" class="st2" transform="rotate(90 194.788 130.967)"/><path d="M117.2 151.6h14.9v54h-14.9z" class="st2" transform="rotate(90 124.676 178.555)"/><path d="M191.2 72.6h-38.6c-.6 0-1-.4-1-1V45.7c0-.6.4-1 1-1h38.6c.6 0 1 .4 1 1v25.9c0 .5-.4 1-1 1zm-37.5-2h36.6V46.7h-36.6v23.9z" class="st1"/><g><path d="M186.2 67.1h-9c-.3 0-.5-.2-.5-.5s.2-.5.5-.5h8.5V46.2h-27.6v19.9h13.8c.3 0 .5.2.5.5s-.2.5-.5.5h-14.3c-.3 0-.5-.2-.5-.5V45.7c0-.3.2-.5.5-.5h28.6c.3 0 .5.2.5.5v20.9c0 .3-.2.5-.5.5z" class="st1"/></g><g><path d="M151.4 120.3h-41.8c-.6 0-1-.4-1-1V99.4c0-.6.4-1 1-1h41.8c.6 0 1 .4 1 1v19.9c0 .6-.4 1-1 1zm-40.8-2h39.8v-17.9h-39.8v17.9z" class="st1"/></g><g><path d="M146.4 114.9h-31.9c-.3 0-.5-.2-.5-.5v-15c0-.3.2-.5.5-.5h31.9c.3 0 .5.2.5.5v14.9c0 .3-.2.6-.5.6zm-31.3-1H146v-14h-30.9v14z" class="st1"/></g><g><path d="M204.3 141.3h-27c-.6 0-1-.4-1-1v-14.9c0-.6.4-1 1-1h27c.6 0 1 .4 1 1v14.9c0 .6-.5 1-1 1zm-26-2h25v-12.9h-25v12.9z" class="st1"/></g><g><path d="M199.9 137.1h-18.2c-.3 0-.5-.2-.5-.5v-11.2c0-.3.2-.5.5-.5h18.2c.3 0 .5.2.5.5v11.2c0 .2-.2.5-.5.5zm-17.7-1h17.2v-10.2h-17.2v10.2z" class="st1"/></g><g><path d="M151.7 186.5h-58c-.3 0-.5-.2-.5-.5v-14.9c0-.3.2-.5.5-.5h58c.3 0 .5.2.5.5V186c0 .3-.3.5-.5.5zm-57.5-1h57v-13.9h-57v13.9z" class="st1"/></g><g><path d="M211 186.5h-36.2c-.3 0-.5-.2-.5-.5v-14.9c0-.3.2-.5.5-.5H211c.3 0 .5.2.5.5V186c0 .3-.3.5-.5.5zm-35.8-1h35.2v-13.9h-35.2v13.9z" class="st1"/></g><g><path d="M82.3 60.2H4.6c-.6 0-1-.4-1-1v-42c0-.6.4-1 1-1h12.3c.6 0 1 .4 1 1s-.4 1-1 1H5.6v40h75.7v-40H25.5c-.6 0-1-.4-1-1s.4-1 1-1h56.8c.6 0 1 .4 1 1v42c0 .6-.5 1-1 1z" class="st1"/></g><g><path d="M151.7 187h-63c-.6 0-1-.4-1-1v-19.9c0-.6.4-1 1-1h38.2c.6 0 1 .4 1 1s-.4 1-1 1H89.7V185h61v-17.9h-18.5c-.6 0-1-.4-1-1s.4-1 1-1h19.5c.6 0 1 .4 1 1V186c0 .6-.5 1-1 1z" class="st1"/></g><g><path d="M215.9 187h-46.2c-.6 0-1-.4-1-1v-19.9c0-.6.4-1 1-1h46.2c.6 0 1 .4 1 1V186c0 .6-.4 1-1 1zm-45.1-2H215v-17.9h-44.2V185z" class="st1"/></g><g><path d="M250.9 198h-49.4c-.6 0-1-.4-1-1s.4-1 1-1h48.4v-9H18v8.9h175.8c.6 0 1 .4 1 1s-.4 1-1 1H17c-.6 0-1-.4-1-1V186c0-.6.4-1 1-1h233.9c.6 0 1 .4 1 1v11c0 .5-.4 1-1 1z" class="st1"/></g><g><path d="M239 226.8h-59.8c-.6 0-1-.4-1-1s.4-1 1-1H238v-8.9H30v8.9h143c.6 0 1 .4 1 1s-.4 1-1 1H29c-.6 0-1-.4-1-1v-10.9c0-.6.4-1 1-1h210c.6 0 1 .4 1 1v10.9c0 .6-.4 1-1 1z" class="st1"/></g></svg>

<svg xmlns="http://www.w3.org/2000/svg" id="Layer_1" x="0" y="0" enable-background="new 0 0 256 256" version="1.1" viewBox="0 0 256 256" xml:space="preserve"><style>.st0{fill:#FFFFFF;}
	.st1{fill:#48386A;}
	.st2{fill:#9FEAFF;}</style><path d="M193.8 197 17 197 17 186 250.9 186 250.9 197 201.5 197z" class="st0"/><path d="M250.9 198h-49.4c-.6 0-1-.4-1-1s.4-1 1-1h48.4v-9H18v8.9h175.8c.6 0 1 .4 1 1s-.4 1-1 1H17c-.6 0-1-.4-1-1V186c0-.6.4-1 1-1h233.9c.6 0 1 .4 1 1v11c0 .5-.4 1-1 1z" class="st1"/><path d="M173 225.8 29 225.8 29 214.9 239 214.9 239 225.8 179.2 225.8z" class="st0"/><path d="M239 226.8h-59.8c-.6 0-1-.4-1-1s.4-1 1-1H238v-8.9H30v8.9h143c.6 0 1 .4 1 1s-.4 1-1 1H29c-.6 0-1-.4-1-1v-10.9c0-.6.4-1 1-1h210c.6 0 1 .4 1 1v10.9c0 .6-.4 1-1 1z" class="st1"/><path d="M177 225.8 33 225.8 33 214.9 242 214.9 242 225.8 183.2 225.8z" class="st2"/><path d="M38.9 197H47.9V214.9H38.9z" class="st0"/><path d="M47.9 215.9h-9c-.6 0-1-.4-1-1V197c0-.6.4-1 1-1h9c.6 0 1 .4 1 1v17.9c0 .5-.4 1-1 1zm-8-2h7V198h-7v15.9z" class="st1"/><path d="M38.9 117.5 38.9 59.2 47.9 59.2 47.9 186 38.9 186 38.9 127z" class="st0"/><path d="M47.9 187h-9c-.6 0-1-.4-1-1v-59c0-.6.4-1 1-1s1 .4 1 1v58h7V60.2h-7v57.2c0 .6-.4 1-1 1s-1-.4-1-1V59.2c0-.6.4-1 1-1h9c.6 0 1 .4 1 1V186c0 .6-.4 1-1 1z" class="st1"/><path d="M38.9 124.3c-.6 0-1-.4-1-1v-2.2c0-.6.4-1 1-1s1 .4 1 1v2.2c0 .6-.4 1-1 1z" class="st1"/><path d="M25.5 17.2 82.3 17.2 82.3 59.2 4.6 59.2 4.6 17.2 16.8 17.2z" class="st0"/><path d="M82.3 60.2H4.6c-.6 0-1-.4-1-1v-42c0-.6.4-1 1-1h12.3c.6 0 1 .4 1 1s-.4 1-1 1H5.6v40h75.7v-40H25.5c-.6 0-1-.4-1-1s.4-1 1-1h56.8c.6 0 1 .4 1 1v42c0 .6-.5 1-1 1z" class="st1"/><path d="M197.3 197 20.5 197 20.5 186 253.4 186 253.4 197 205 197z" class="st2"/><path d="M68.4 20.7 82.3 20.7 82.3 55.7 11.1 55.7 11.1 20.7 64.1 20.7z" class="st2"/><path d="M22 18.2h-1.5c-.6 0-1-.4-1-1s.4-1 1-1H22c.6 0 1 .4 1 1s-.4 1-1 1zM78.8 56.2H8.1c-.3 0-.5-.2-.5-.5v-35c0-.3.2-.5.5-.5h52.7c.3 0 .5.2.5.5s-.2.5-.5.5H8.6v34h69.7v-34H65c-.3 0-.5-.2-.5-.5s.2-.5.5-.5h13.8c.3 0 .5.2.5.5v35c0 .3-.2.5-.5.5z" class="st1"/><path d="M38.9 225.8H47.9V238.70000000000002H38.9z" class="st0"/><path d="M47.9 239.8h-9c-.6 0-1-.4-1-1v-12.9c0-.6.4-1 1-1h9c.6 0 1 .4 1 1v12.9c0 .5-.4 1-1 1zm-8-2h7v-10.9h-7v10.9z" class="st1"/><path d="M220.1 197H229.1V214.9H220.1z" class="st0"/><path d="M229 215.9h-9c-.6 0-1-.4-1-1V197c0-.6.4-1 1-1h9c.6 0 1 .4 1 1v17.9c0 .5-.4 1-1 1zm-7.9-2h7V198h-7v15.9z" class="st1"/><path d="M220.1 225.8H229.1V238.70000000000002H220.1z" class="st0"/><path d="M229 239.8h-9c-.6 0-1-.4-1-1v-12.9c0-.6.4-1 1-1h9c.6 0 1 .4 1 1v12.9c0 .5-.4 1-1 1zm-7.9-2h7v-10.9h-7v10.9zM29.8 50.3c-.1 0-.3 0-.4-.1-.2-.2-.2-.5 0-.7L52.9 26c.2-.2.5-.2.7 0s.2.5 0 .7L30.1 50.1c-.1.1-.2.2-.3.2zM37.7 50.7c-.1 0-.3 0-.4-.1-.2-.2-.2-.5 0-.7l19.3-19.3c.2-.2.5-.2.7 0s.2.5 0 .7L38.1 50.6c-.1.1-.2.1-.4.1zM251.4 192H88.9c-.3 0-.5-.2-.5-.5s.2-.5.5-.5h162.6c.3 0 .5.2.5.5s-.3.5-.6.5zM86.4 192h-2.8c-.3 0-.5-.2-.5-.5s.2-.5.5-.5h2.8c.3 0 .5.2.5.5s-.2.5-.5.5zM80.1 192H17.5c-.3 0-.5-.2-.5-.5s.2-.5.5-.5h62.6c.3 0 .5.2.5.5s-.2.5-.5.5zM238.5 220.9h-209c-.3 0-.5-.2-.5-.5s.2-.5.5-.5h209c.3 0 .5.2.5.5s-.2.5-.5.5z" class="st1"/><path d="M73.3 150.4 73.3 98.8 190.7 98.8 190.7 125.4 151.7 125.4 151.7 185.9 73.3 185.9 73.3 155.9z" class="st0"/><path d="M151.7 186.9H73.3c-.6 0-1-.4-1-1v-30c0-.6.4-1 1-1s1 .4 1 1v29h76.4v-59.6c0-.6.4-1 1-1h38.1V99.8H74.3v50.5c0 .6-.4 1-1 1s-1-.4-1-1V98.8c0-.6.4-1 1-1h117.4c.6 0 1 .4 1 1v26.5c0 .6-.4 1-1 1h-38.1v59.6c.1.6-.4 1-.9 1z" class="st1"/><path d="M234 153.9 234 186 151.7 186 151.7 125.4 234 125.4 234 149.2z" class="st0"/><path d="M234 187h-82.4c-.6 0-1-.4-1-1v-60.7c0-.6.4-1 1-1H234c.6 0 1 .4 1 1v23.8c0 .6-.4 1-1 1s-1-.4-1-1v-22.8h-80.4V185H233v-31.2c0-.6.4-1 1-1s1 .4 1 1V186c0 .6-.4 1-1 1z" class="st1"/><path d="M130.8 74.5 130.8 45.7 213.1 45.7 213.1 125.4 190.7 125.4 190.7 98.9 130.8 98.9 130.8 79z" class="st0"/><path d="M213.1 126.4h-22.4c-.6 0-1-.4-1-1V99.9h-59c-.6 0-1-.4-1-1V79c0-.6.4-1 1-1s1 .4 1 1v18.9h59c.6 0 1 .4 1 1v25.4h20.4V46.7h-80.4v27.8c0 .6-.4 1-1 1s-1-.4-1-1V45.7c0-.6.4-1 1-1h82.4c.6 0 1 .4 1 1v79.7c0 .5-.4 1-1 1z" class="st1"/><path d="M178.7 171.1H214.79999999999998V186H178.7z" class="st2"/><path d="M175.9 66.6 161.6 66.6 161.6 45.7 190.2 45.7 190.2 66.6 181.3 66.6z" class="st2"/><path d="M127 91H141.9V122.9H127z" class="st2" transform="rotate(90 134.51 106.893)"/><path d="M189.2 121.9H200.39999999999998V140.1H189.2z" class="st2" transform="rotate(90 194.788 130.967)"/><path d="M117.2 151.6H132.1V205.6H117.2z" class="st2" transform="rotate(90 124.676 178.555)"/><path d="M191.2 72.6h-38.6c-.6 0-1-.4-1-1V45.7c0-.6.4-1 1-1h38.6c.6 0 1 .4 1 1v25.9c0 .5-.4 1-1 1zm-37.5-2h36.6V46.7h-36.6v23.9z" class="st1"/><g><path d="M186.2 67.1h-9c-.3 0-.5-.2-.5-.5s.2-.5.5-.5h8.5V46.2h-27.6v19.9h13.8c.3 0 .5.2.5.5s-.2.5-.5.5h-14.3c-.3 0-.5-.2-.5-.5V45.7c0-.3.2-.5.5-.5h28.6c.3 0 .5.2.5.5v20.9c0 .3-.2.5-.5.5z" class="st1"/></g><g><path d="M151.4 120.3h-41.8c-.6 0-1-.4-1-1V99.4c0-.6.4-1 1-1h41.8c.6 0 1 .4 1 1v19.9c0 .6-.4 1-1 1zm-40.8-2h39.8v-17.9h-39.8v17.9z" class="st1"/></g><g><path d="M146.4 114.9h-31.9c-.3 0-.5-.2-.5-.5v-15c0-.3.2-.5.5-.5h31.9c.3 0 .5.2.5.5v14.9c0 .3-.2.6-.5.6zm-31.3-1H146v-14h-30.9v14z" class="st1"/></g><g><path d="M204.3 141.3h-27c-.6 0-1-.4-1-1v-14.9c0-.6.4-1 1-1h27c.6 0 1 .4 1 1v14.9c0 .6-.5 1-1 1zm-26-2h25v-12.9h-25v12.9z" class="st1"/></g><g><path d="M199.9 137.1h-18.2c-.3 0-.5-.2-.5-.5v-11.2c0-.3.2-.5.5-.5h18.2c.3 0 .5.2.5.5v11.2c0 .2-.2.5-.5.5zm-17.7-1h17.2v-10.2h-17.2v10.2z" class="st1"/></g><g><path d="M151.7 186.5h-58c-.3 0-.5-.2-.5-.5v-14.9c0-.3.2-.5.5-.5h58c.3 0 .5.2.5.5V186c0 .3-.3.5-.5.5zm-57.5-1h57v-13.9h-57v13.9z" class="st1"/></g><g><path d="M211 186.5h-36.2c-.3 0-.5-.2-.5-.5v-14.9c0-.3.2-.5.5-.5H211c.3 0 .5.2.5.5V186c0 .3-.3.5-.5.5zm-35.8-1h35.2v-13.9h-35.2v13.9z" class="st1"/></g><g><path d="M82.3 60.2H4.6c-.6 0-1-.4-1-1v-42c0-.6.4-1 1-1h12.3c.6 0 1 .4 1 1s-.4 1-1 1H5.6v40h75.7v-40H25.5c-.6 0-1-.4-1-1s.4-1 1-1h56.8c.6 0 1 .4 1 1v42c0 .6-.5 1-1 1z" class="st1"/></g><g><path d="M151.7 187h-63c-.6 0-1-.4-1-1v-19.9c0-.6.4-1 1-1h38.2c.6 0 1 .4 1 1s-.4 1-1 1H89.7V185h61v-17.9h-18.5c-.6 0-1-.4-1-1s.4-1 1-1h19.5c.6 0 1 .4 1 1V186c0 .6-.5 1-1 1z" class="st1"/></g><g><path d="M215.9 187h-46.2c-.6 0-1-.4-1-1v-19.9c0-.6.4-1 1-1h46.2c.6 0 1 .4 1 1V186c0 .6-.4 1-1 1zm-45.1-2H215v-17.9h-44.2V185z" class="st1"/></g><g><path d="M250.9 198h-49.4c-.6 0-1-.4-1-1s.4-1 1-1h48.4v-9H18v8.9h175.8c.6 0 1 .4 1 1s-.4 1-1 1H17c-.6 0-1-.4-1-1V186c0-.6.4-1 1-1h233.9c.6 0 1 .4 1 1v11c0 .5-.4 1-1 1z" class="st1"/></g><g><path d="M239 226.8h-59.8c-.6 0-1-.4-1-1s.4-1 1-1H238v-8.9H30v8.9h143c.6 0 1 .4 1 1s-.4 1-1 1H29c-.6 0-1-.4-1-1v-10.9c0-.6.4-1 1-1h210c.6 0 1 .4 1 1v10.9c0 .6-.4 1-1 1z" class="st1"/></g></svg>
